X: 102
T: The Black Joke
%R: jig
B: "The Hibernian Muse" p.65 #1
F: http://imslp.org/wiki/The_Hibernian_Muse_%28Various%29
Z: 2015 John Chambers <jc:trillian.mit.edu>
P: No. CII.
M: 6/8
L: 1/8
K: A
% - - - - - - - - - - - - - - - - - - - - - - - - - - - - -
V: 1
|:\
TFEF A2A | B2B TB2A |\
c2c cBA | BcB BAG |\
A3 TF2E | EFA A3 :|\
|:\
cde efe | f2d Te2d |
cde efe | f2d e2d/c/ |\
d2d ced | cBc {d}cBA |\
cde d2c | BAB BAF |\
A3 TF2E | EFA A3 :|
% - - - - - - - - - - - - - - - - - - - - - - - - - - - - -
V: 2 clef=bass middle=d
|:\
z2z A3 | e3 A3 |\
a3 A3 | d3 d3 |\
cBA d2e | A3 A3 :|\
|:\
A3 a3 | d3 d3 |
A3 a3 | d3 A3 |\
d3 A3 | a3 A3 |\
a3 A3 | d3 d3 |\
cBA d2c | A3 A3 :|

%%sep 2 1 500
%%sep 1 1 500

